X:1
T:Binnorie
M:4/4
L:1/8
K:A
 EE| E2 A2 A2 E2| =G2 FE D2 d2| e3 d c2 B2| A2 B2- c2| cc| dc Bd e2 EE|\
 A3/2 G/2 A3/2 F/2 E2 C3/2 D/2| EE F2A-G FF| E2 A2 A2||
